src/assets/images/clear.svg

<?xml version="1.0" encoding="UTF-8"?>
<svg fill="#ffffff" viewBox="0 0 180 180" xmlns="http://www.w3.org/2000/svg">
<path d="m42.539 90c0 26.17 21.291 47.461 47.461 47.461s47.461-21.291 47.461-47.461-21.291-47.461-47.461-47.461-47.461 21.291-47.461 47.461zm47.461-36.914c20.354 0 36.914 16.56 36.914 36.914 0 20.354-16.56 36.914-36.914 36.914-20.354 0-36.914-16.56-36.914-36.914 0-20.354 16.56-36.914 36.914-36.914z"/>
<path d="m131.02 131.02c-2.06 2.059-2.06 5.398 0 7.458l25.462 25.462c2.059 2.059 5.398 2.06 7.458 0 2.059-2.06 2.059-5.398 0-7.458l-25.463-25.462c-2.059-2.06-5.398-2.06-7.457 0z"/>
<path d="m23.52 16.062c-2.0591-2.0595-5.3983-2.0595-7.4577 0-2.0595 2.0594-2.0595 5.3982 0 7.4577l25.462 25.462c2.0591 2.0594 5.3983 2.0598 7.4577 0 2.0595-2.0595 2.0595-5.3983 0-7.4577l-25.462-25.462z"/>
<path d="m16.062 163.94c2.0591 2.059 5.3982 2.06 7.4577 0l25.462-25.462c2.0595-2.06 2.0595-5.399 0-7.458-2.0591-2.06-5.3982-2.06-7.4577 0l-25.462 25.462c-2.0595 2.06-2.0595 5.398 0 7.458z"/>
<path d="m163.94 16.062c-2.059-2.0595-5.399-2.0595-7.458 0l-25.462 25.462c-2.06 2.0594-2.06 5.3982 0 7.4577 2.059 2.0594 5.398 2.0598 7.457 0l25.463-25.462c2.059-2.0595 2.059-5.3983 0-7.4577z"/>
<path d="m112.2 143.59c-2.691 1.115-3.969 4.2-2.854 6.89l4.036 9.744c1.113 2.687 4.195 3.971 6.89 2.854 2.691-1.114 3.968-4.199 2.854-6.89l-4.036-9.744c-1.115-2.691-4.199-3.968-6.89-2.854z"/>
<path d="m67.801 36.408c2.6909-1.1144 3.9684-4.1994 2.854-6.8903l-4.036-9.7439c-1.1148-2.6908-4.1994-3.968-6.8902-2.8539-2.6909 1.1144-3.9685 4.1994-2.854 6.8902l4.0359 9.7439c1.1134 2.6867 4.1956 3.9702 6.8903 2.854z"/>
<path d="m29.518 109.34-9.7439 4.036c-2.6909 1.115-3.9684 4.2-2.854 6.891 1.1131 2.686 4.1956 3.97 6.8903 2.854l9.7439-4.036c2.6909-1.115 3.9684-4.2 2.854-6.891-1.1145-2.69-4.1991-3.967-6.8903-2.854z"/>
<path d="m150.48 70.656 9.744-4.0359c2.691-1.1145 3.969-4.1994 2.854-6.8903-1.114-2.6908-4.199-3.9681-6.89-2.854l-9.744 4.036c-2.691 1.1144-3.968 4.1994-2.854 6.8902 1.113 2.6867 4.196 3.9699 6.89 2.854z"/>
<path d="m60.911 146.45-4.036 9.744c-1.1144 2.691 0.1632 5.776 2.854 6.89 2.7018 1.119 5.7801-0.174 6.8903-2.854l4.0359-9.744c1.1145-2.69-0.1631-5.775-2.854-6.89-2.6912-1.114-5.7758 0.163-6.8902 2.854z"/>
<path d="m119.09 33.554 4.036-9.7439c1.115-2.6908-0.163-5.7754-2.854-6.8902-2.69-1.1141-5.775 0.1631-6.89 2.8539l-4.036 9.7439c-1.114 2.6909 0.163 5.7755 2.854 6.8903 2.702 1.1187 5.781-0.174 6.89-2.854z"/>
<path d="m33.554 60.911-9.7439-4.036c-2.6909-1.1144-5.7755 0.1632-6.8903 2.854-1.1144 2.6909 0.1631 5.7755 2.854 6.8903l9.7439 4.0359c2.7018 1.1187 5.7801-0.174 6.8903-2.854 1.1144-2.6908-0.1631-5.7758-2.854-6.8902z"/>
<path d="m160.23 113.38-9.744-4.036c-2.691-1.114-5.775 0.163-6.89 2.854-1.114 2.691 0.163 5.775 2.854 6.89l9.744 4.036c2.702 1.119 5.78-0.174 6.89-2.854 1.115-2.691-0.163-5.776-2.854-6.89z"/>
<path d="m84.727 153.28v21.446c0 2.912 2.3611 5.273 5.2734 5.273s5.2734-2.361 5.2734-5.273v-21.446c0-2.912-2.3611-5.273-5.2734-5.273s-5.2734 2.361-5.2734 5.273z"/>
<path d="m95.273 26.719v-21.445c0-2.9124-2.3611-5.2734-5.2734-5.2734s-5.2734 2.3611-5.2734 5.2734v21.445c0 2.9123 2.3611 5.2734 5.2734 5.2734s5.2734-2.3611 5.2734-5.2734z"/>
<path d="m0 90c0 2.9123 2.3611 5.2734 5.2734 5.2734h21.445c2.9123 0 5.2734-2.3611 5.2734-5.2734s-2.3611-5.2734-5.2734-5.2734h-21.445c-2.9124 0-5.2734 2.3611-5.2734 5.2734z"/>
<path d="m174.73 84.727h-21.446c-2.912 0-5.273 2.3611-5.273 5.2734s2.361 5.2734 5.273 5.2734h21.446c2.912 0 5.273-2.3611 5.273-5.2734s-2.361-5.2734-5.273-5.2734z"/>
</svg>

<svg width="180" height="180" viewBox="0 0 180 180" fill="#ffffff" xmlns="http://www.w3.org/2000/svg">
<path d="M42.5391 90C42.5391 116.17 63.83 137.461 90 137.461C116.17 137.461 137.461 116.17 137.461 90C137.461 63.83 116.17 42.5391 90 42.5391C63.83 42.5391 42.5391 63.83 42.5391 90ZM90 53.0859C110.354 53.0859 126.914 69.6456 126.914 90C126.914 110.354 110.354 126.914 90 126.914C69.6456 126.914 53.0859 110.354 53.0859 90C53.0859 69.6456 69.6456 53.0859 90 53.0859Z"/>
<path d="M131.018 131.018C128.958 133.077 128.958 136.416 131.018 138.476L156.48 163.938C158.539 165.997 161.878 165.998 163.938 163.938C165.997 161.878 165.997 158.54 163.938 156.48L138.475 131.018C136.416 128.958 133.077 128.958 131.018 131.018Z"/>
<path d="M23.5199 16.0622C21.4608 14.0027 18.1216 14.0027 16.0622 16.0622C14.0027 18.1216 14.0027 21.4604 16.0622 23.5199L41.5244 48.9822C43.5835 51.0416 46.9227 51.042 48.9821 48.9822C51.0416 46.9227 51.0416 43.5839 48.9821 41.5245L23.5199 16.0622Z"/>
<path d="M16.0622 163.938C18.1213 165.997 21.4604 165.998 23.5199 163.938L48.9821 138.476C51.0416 136.416 51.0416 133.077 48.9821 131.018C46.923 128.958 43.5839 128.958 41.5244 131.018L16.0622 156.48C14.0027 158.54 14.0027 161.878 16.0622 163.938Z"/>
<path d="M163.938 16.0622C161.879 14.0027 158.539 14.0027 156.48 16.0622L131.018 41.5245C128.958 43.5839 128.958 46.9227 131.018 48.9822C133.077 51.0416 136.416 51.042 138.475 48.9822L163.938 23.5199C165.997 21.4604 165.997 18.1216 163.938 16.0622Z"/>
<path d="M112.199 143.592C109.508 144.707 108.23 147.792 109.345 150.482L113.381 160.226C114.494 162.913 117.576 164.197 120.271 163.08C122.962 161.966 124.239 158.881 123.125 156.19L119.089 146.446C117.974 143.755 114.89 142.478 112.199 143.592Z"/>
<path d="M67.8014 36.4078C70.4923 35.2934 71.7698 32.2084 70.6554 29.5175L66.6194 19.7736C65.5046 17.0828 62.42 15.8056 59.7292 16.9197C57.0383 18.0341 55.7607 21.1191 56.8752 23.8099L60.9111 33.5538C62.0245 36.2405 65.1067 37.524 67.8014 36.4078Z"/>
<path d="M29.5175 109.344L19.7736 113.38C17.0827 114.495 15.8052 117.58 16.9196 120.271C18.0327 122.957 21.1152 124.241 23.8099 123.125L33.5538 119.089C36.2447 117.974 37.5222 114.889 36.4078 112.198C35.2933 109.508 32.2087 108.231 29.5175 109.344Z"/>
<path d="M150.482 70.6556L160.226 66.6197C162.917 65.5052 164.195 62.4203 163.08 59.7294C161.966 57.0386 158.881 55.7613 156.19 56.8754L146.446 60.9114C143.755 62.0258 142.478 65.1108 143.592 67.8016C144.705 70.4883 147.788 71.7715 150.482 70.6556Z"/>
<path d="M60.9114 146.446L56.8754 156.19C55.761 158.881 57.0386 161.966 59.7294 163.08C62.4312 164.199 65.5095 162.906 66.6197 160.226L70.6556 150.482C71.7701 147.792 70.4925 144.707 67.8016 143.592C65.1104 142.478 62.0258 143.755 60.9114 146.446Z"/>
<path d="M119.088 33.5538L123.124 23.8099C124.239 21.1191 122.961 18.0345 120.27 16.9197C117.58 15.8056 114.495 17.0828 113.38 19.7736L109.344 29.5175C108.23 32.2084 109.507 35.293 112.198 36.4078C114.9 37.5265 117.979 36.2338 119.088 33.5538Z"/>
<path d="M33.5538 60.9114L23.8099 56.8754C21.119 55.761 18.0344 57.0386 16.9196 59.7294C15.8052 62.4203 17.0827 65.5049 19.7736 66.6197L29.5175 70.6556C32.2193 71.7743 35.2976 70.4816 36.4078 67.8016C37.5222 65.1108 36.2447 62.0258 33.5538 60.9114Z"/>
<path d="M160.226 113.381L150.482 109.345C147.791 108.231 144.707 109.508 143.592 112.199C142.478 114.89 143.755 117.974 146.446 119.089L156.19 123.125C158.892 124.244 161.97 122.951 163.08 120.271C164.195 117.58 162.917 114.495 160.226 113.381Z"/>
<path d="M84.7266 153.281V174.727C84.7266 177.639 87.0877 180 90 180C92.9123 180 95.2734 177.639 95.2734 174.727V153.281C95.2734 150.369 92.9123 148.008 90 148.008C87.0877 148.008 84.7266 150.369 84.7266 153.281Z"/>
<path d="M95.2734 26.7188V5.27344C95.2734 2.36109 92.9123 0 90 0C87.0877 0 84.7266 2.36109 84.7266 5.27344V26.7188C84.7266 29.6311 87.0877 31.9922 90 31.9922C92.9123 31.9922 95.2734 29.6311 95.2734 26.7188Z"/>
<path d="M0 90C0 92.9123 2.36109 95.2734 5.27344 95.2734H26.7188C29.6311 95.2734 31.9922 92.9123 31.9922 90C31.9922 87.0877 29.6311 84.7266 26.7188 84.7266H5.27344C2.36109 84.7266 0 87.0877 0 90Z"/>
<path d="M174.727 84.7266H153.281C150.369 84.7266 148.008 87.0877 148.008 90C148.008 92.9123 150.369 95.2734 153.281 95.2734H174.727C177.639 95.2734 180 92.9123 180 90C180 87.0877 177.639 84.7266 174.727 84.7266Z"/>
</svg>
